public/library/1inch-text-dark.svg

<svg xmlns="http://www.w3.org/2000/svg" width="1280" height="512" fill="none" viewBox="0 0 1280 512"><path fill="#fff" d="M1148.87 202.226v-72.73h36.64v72.73zm-64.27 0v-72.73h36.65v72.73zM902.431 384.319h45.145v-92.373c0-39.192 21.832-56.805 41.426-56.805 19.598 0 32.398 12.184 32.398 41.94v107.238h45.14V268.056c0-42.457-23.34-69.28-61.07-69.28-26.492 0-46.646 13.678-57.894 43.798V129.496h-45.145zm-689.913.077 172.611-.077v-36.631h-63.733V129.496h-37.709c-1.452 30.482-10.32 38.223-52.049 38.223h-19.12v34.507h63.733v145.462h-63.733zm574.131-149.255c22.497 0 40.577 17.6 42.754 43.002h46.738c-6.531-48.264-42.32-79.367-89.492-79.367-51.163 0-91.351 39.436-91.351 94.231s40.188 94.497 91.351 94.497c47.172 0 82.961-30.838 89.492-79.101h-46.738c-2.177 25.402-20.257 43.001-42.754 43.001s-45.144-20.294-45.144-58.397 21.921-57.866 45.144-57.866M503.036 384.319h45.144l-.017-92.252c0-39.192 21.849-56.926 41.444-56.926 19.594 0 32.397 12.184 32.397 41.94v107.238h45.177V268.056c0-42.457-23.372-69.28-61.11-69.28-26.489 0-46.642 13.678-57.891 43.798v-40.348h-45.144zm-90.82-254.823v45.125h45.144v-45.125zm0 72.73v182.093h45.144V202.226z"/></svg>

<svg width="1280" height="512" viewBox="0 0 1280 512" fill="none" xmlns="http://www.w3.org/2000/svg">
<path d="M1148.87 202.226V129.496H1185.51V202.226H1148.87ZM1084.6 202.226V129.496H1121.25V202.226L1084.6 202.226ZM902.431 384.319L947.576 384.319V291.946C947.576 252.754 969.408 235.141 989.002 235.141C1008.6 235.141 1021.4 247.325 1021.4 277.081V384.319L1066.54 384.319V268.056C1066.54 225.599 1043.2 198.776 1005.47 198.776C978.978 198.776 958.824 212.454 947.576 242.574V129.496H902.431V384.319ZM212.518 384.396L385.129 384.319V347.688L321.396 347.688V129.496H283.687C282.235 159.978 273.367 167.719 231.638 167.719L212.518 167.719V202.226L276.251 202.226V347.688L212.518 347.688V384.396ZM786.649 235.141C809.146 235.141 827.226 252.741 829.403 278.143L876.141 278.143C869.61 229.879 833.821 198.776 786.649 198.776C735.486 198.776 695.298 238.212 695.298 293.007C695.298 347.802 735.486 387.504 786.649 387.504C833.821 387.504 869.61 356.666 876.141 308.403H829.403C827.226 333.805 809.146 351.404 786.649 351.404C764.152 351.404 741.505 331.11 741.505 293.007C741.505 254.905 763.426 235.141 786.649 235.141ZM503.036 384.319L548.18 384.319L548.163 292.067C548.163 252.875 570.012 235.141 589.607 235.141C609.201 235.141 622.004 247.325 622.004 277.081V384.319L667.181 384.319V268.056C667.181 225.599 643.809 198.776 606.071 198.776C579.582 198.776 559.429 212.454 548.18 242.574V202.226L503.036 202.226V384.319ZM412.216 129.496V174.621L457.36 174.621V129.496H412.216ZM412.216 202.226V384.319L457.36 384.319V202.226L412.216 202.226Z" fill="white"/>
</svg>
